X:780
T:Auld Hoose, The
C:Joe Buchanan's Scottish Tome - Page 534.2
I:534 2
Z:Carl Allison
R:Slow Air
L:1/4
M:3/4
K:G
G/A/ | "G"G3 | "G"(A2 "G7"G) | "C"(A2 "C"G) | "C"(E2 G) | "G"(D2 E)  | "G"(G2 B) | "A"A3- | "D"A "D7"(G A)|
"G"B3 | "G"(A2 G) | "C"(A2 G) | "C"(E2 G) | "G"(D2 B) | "D"(B2 "D7"A) | "G"G3- | "G"G2 A |
"D"A2 "D7"A | "G"(B2 "G7"d) | "C"e2 e | "C"(d2 B) | "G"(d2 B) | "A"(A2 "A7"G) | "A"A3- | "D"A "D7"G A |
"G"B2 B | "G"(A2 G) | "C"(A2 G) | "C"(E2 G) | "G"(D2 B) | "D"(B2 "D7"A) | "G"G3- | "G"G2 :|

